Pods/ProtonCore-UIFoundations/libraries/UIFoundations/Sources/Assets.xcassets/Images/IconSet/ic-checkmark-circle.imageset/ic-checkmark-circle.svg

<svg width="24" height="24" viewBox="0 0 24 24" fill="none" xmlns="http://www.w3.org/2000/svg">
<path fill-rule="evenodd" clip-rule="evenodd" d="M12 21C16.9706 21 21 16.9706 21 12C21 7.02944 16.9706 3 12 3C7.02944 3 3 7.02944 3 12C3 16.9706 7.02944 21 12 21ZM12 22.5C17.799 22.5 22.5 17.799 22.5 12C22.5 6.20101 17.799 1.5 12 1.5C6.20101 1.5 1.5 6.20101 1.5 12C1.5 17.799 6.20101 22.5 12 22.5Z" fill="#0C0C14"/>
<path fill-rule="evenodd" clip-rule="evenodd" d="M17.7803 9.21967C18.0732 9.51256 18.0732 9.98744 17.7803 10.2803L11.9925 16.0682C11.5824 16.4782 10.9176 16.4782 10.5075 16.0682L6.96967 12.5303C6.67678 12.2374 6.67678 11.7626 6.96967 11.4697C7.26256 11.1768 7.73744 11.1768 8.03033 11.4697L11.25 14.6893L16.7197 9.21967C17.0126 8.92678 17.4874 8.92678 17.7803 9.21967Z" fill="#0C0C14"/>
</svg>

<svg xmlns="http://www.w3.org/2000/svg" width="24" height="24" viewBox="0 0 24 24">
  <g class="ic-checkmark-circle">
    <g class="Icon">
      <path fill-rule="evenodd" d="M12 21a9 9 0 1 0 0-18 9 9 0 0 0 0 18Zm0 1.5c5.799 0 10.5-4.701 10.5-10.5S17.799 1.5 12 1.5 1.5 6.201 1.5 12 6.201 22.5 12 22.5Z"/>
      <path fill-rule="evenodd" d="M17.78 9.22a.75.75 0 0 1 0 1.06l-5.788 5.788a1.05 1.05 0 0 1-1.485 0L6.97 12.53a.75.75 0 1 1 1.06-1.06l3.22 3.22 5.47-5.47a.75.75 0 0 1 1.06 0Z"/>
    </g>
  </g>
</svg>
